X:921
T:Reel 921
L:1/8
M: 4/4
K: G Major
D2|G2BGABcA|BGBcdcde|(3dcBcABGAG|EAAGAGEF|G2BGABcA|BGBcdcde|B>G(3GFGBGAG|BGAFG2|ef|g2gfegdB|cedcBGGf|g2gfegdB|cAdcBGGd|GBdgegdB|cedcBGGf|(3gfe(3decBGAG|EAAGAGEF|.abc